assets/phone/logo/facebook.svg

<svg xmlns="http://www.w3.org/2000/svg" width="26.24" height="26.24" xmlns:v="https://vecta.io/nano"><path d="M26.24 13.12a13.12 13.12 0 1 0-13.12 13.12l.231-.005V16.026h-2.819v-3.285h2.818v-2.419a3.947 3.947 0 0 1 4.213-4.331 22.9 22.9 0 0 1 2.527.128v2.932h-1.722c-1.358 0-1.625.646-1.625 1.594v2.091H20l-.425 3.285h-2.832v9.712A13.124 13.124 0 0 0 26.24 13.12z" fill="#590d0d"/></svg>

<svg xmlns="http://www.w3.org/2000/svg" width="26.24" height="26.24" viewBox="0 0 26.24 26.24"><defs><style>.a{fill:#590d0d;}</style></defs><path class="a" d="M26.24,13.12A13.12,13.12,0,1,0,13.12,26.24c.077,0,.154,0,.231-.005V16.026H10.532V12.741H13.35V10.322a3.947,3.947,0,0,1,4.213-4.331,22.9,22.9,0,0,1,2.527.128V9.051H18.368c-1.358,0-1.625.646-1.625,1.594v2.091H20l-.425,3.285H16.743v9.712A13.124,13.124,0,0,0,26.24,13.12Z"/></svg>
